!!! OTL: Berkowitz505
!!! Chapter: 1
!!! Section: IV
!!! Page: 126
!!! Mode: 
!!! Encoder: DJB
**kern
*staff1
*I"Piano
=1-
*clefG2
*k[]
*a:
*M3/4
8.G/L
32B/LL
32e/JJJ
4g/
20a/LL
20f#/
20g/
20b/
20a/JJ
=2
24f#/LL
24fn/
24f/
24a/
24g#/
24a/JJ
4cc\
4d#/
=3
8.g/L
32f#/LL
32e/JJJ
[4B/
20B/LL]
20c/
20B/
20e/
20g/JJ
=4
12f/L
12e/
12c#/J
4d/
16G/LL
16B/
16d/
16f/JJ
=5
!!linebreak:original
4g/
4cc\
20e/LL
20d/
20c/
20B/
20c/JJ
=6
4d/
8r
8b\
16g#/LL
16f/
16e/
16d/JJ
=7
20c/LL
20B/
20c/
20e/
20a/JJ
[4B/
20B/LL]
20c/
20B/
20d/
20G#/JJ
=8
4B/
4A/
4r
=9
8.B/L
32d/LL
32f/JJJ
4A/
16c/LL
16B/
16A/
16G#/JJ
=10
!!linebreak:original
8.B/L
32c/LL
32B/JJJ
4A/
4r
==
*-
